X: 37912
T: South Wind, The
R: waltz
M: 3/4
K: Gmajor
dc|:B3 A G2|B2 c2 d2|d4 cB|A4 dc|B3 A G2|E2 D2 E2|G6|
G4:|d2|g4 ga|g2 f2 e2|d4 c2|B4 dc|B3 A G2|
B2 c2 d2|d4 cB|A4 d2|g4 ga|g2 f2 e2|d4 c2|
B4 dc|B3 A G2|A2 c2 F2|G6|G4||

